Numix/64/mimetypes/application-ascii.svg

<?xml version="1.0" encoding="UTF-8" standalone="no"?>
<svg
   xmlns:dc="http://purl.org/dc/elements/1.1/"
   xmlns:cc="http://creativecommons.org/ns#"
   xmlns:rdf="http://www.w3.org/1999/02/22-rdf-syntax-ns#"
   xmlns:svg="http://www.w3.org/2000/svg"
   xmlns="http://www.w3.org/2000/svg"
   xmlns:sodipodi="http://sodipodi.sourceforge.net/DTD/sodipodi-0.dtd"
   xmlns:inkscape="http://www.inkscape.org/namespaces/inkscape"
   width="64px"
   height="64px"
   viewBox="0 0 64 64"
   version="1.1"
   id="svg2"
   inkscape:version="0.91 r13725"
   sodipodi:docname="application-ascii.svg">
  <metadata
     id="metadata25">
    <rdf:RDF>
      <cc:Work
         rdf:about="">
        <dc:format>image/svg+xml</dc:format>
        <dc:type
           rdf:resource="http://purl.org/dc/dcmitype/StillImage" />
      </cc:Work>
    </rdf:RDF>
  </metadata>
  <defs
     id="defs23" />
  <sodipodi:namedview
     pagecolor="#ffffff"
     bordercolor="#666666"
     borderopacity="1"
     objecttolerance="10"
     gridtolerance="10"
     guidetolerance="10"
     inkscape:pageopacity="0"
     inkscape:pageshadow="2"
     inkscape:window-width="1920"
     inkscape:window-height="1013"
     id="namedview21"
     showgrid="false"
     inkscape:zoom="3.6875"
     inkscape:cx="-2.9830508"
     inkscape:cy="32"
     inkscape:window-x="0"
     inkscape:window-y="27"
     inkscape:window-maximized="1"
     inkscape:current-layer="svg2" />
  <path
     inkscape:connector-curvature="0"
     id="path5"
     d="M 10.671875,0 C 9.296875,0 8,1.355469 8,2.789062 L 8,61.210938 C 8,62.566406 9.375,64 10.671875,64 l 42.65625,0 C 54.625,64 56,62.566406 56,61.210938 L 56,18 38,0 Z m 0,0"
     style="fill:#dcdcdc;fill-opacity:1;fill-rule:nonzero;stroke:none" />
  <path
     inkscape:connector-curvature="0"
     id="path7"
     d="m 42,18 14,14 0,-14 z m 0,0"
     style="fill:#000000;fill-opacity:0.19607801;fill-rule:nonzero;stroke:none" />
  <path
     inkscape:connector-curvature="0"
     id="path9"
     d="M 38,0 55.984375,18 40.757812,18 C 39.410156,18 38,16.574219 38,15.226562 Z m 0,0"
     style="fill:#ffffff;fill-opacity:0.39215698;fill-rule:nonzero;stroke:none" />
  <path
     inkscape:connector-curvature="0"
     id="path11"
     d="m 18.21875,43.988281 -0.464844,-2.761719 -2.632812,0 -0.441406,2.761719 -2.039063,0 c 0.464844,-2.355469 0.933594,-4.5 1.414063,-6.429687 0.480468,-1.949219 0.941406,-3.785156 1.390624,-5.527344 l 2.128907,0 c 0.472656,1.75 0.933593,3.609375 1.390625,5.585938 0.464844,1.960937 0.917968,4.082031 1.347656,6.371093 l -2.09375,0 m -1.757812,-9.640625 c -0.105469,0.449219 -0.203126,0.886719 -0.300782,1.292969 -0.08984,0.398437 -0.171875,0.804687 -0.261718,1.203125 -0.07031,0.382812 -0.144532,0.78125 -0.21875,1.179688 -0.0625,0.398437 -0.128907,0.8125 -0.1875,1.234374 l 1.929687,0 c -0.06641,-0.421874 -0.132813,-0.835937 -0.195313,-1.234374 -0.06641,-0.398438 -0.140624,-0.796876 -0.222656,-1.179688 -0.07031,-0.398438 -0.160156,-0.804688 -0.257812,-1.203125 -0.08203,-0.40625 -0.179688,-0.84375 -0.285156,-1.292969"
     style="fill:#555555;fill-opacity:1;fill-rule:nonzero;stroke:none" />
  <path
     inkscape:connector-curvature="0"
     id="path13"
     d="m 24.160156,42.25 c 0.324219,0 0.601563,-0.03125 0.8125,-0.113281 0.21875,-0.08984 0.398438,-0.203125 0.519532,-0.347657 0.128906,-0.15625 0.21875,-0.320312 0.261718,-0.496093 0.04687,-0.195313 0.07813,-0.390625 0.07813,-0.585938 0,-0.246093 -0.0625,-0.464843 -0.175781,-0.660156 -0.117188,-0.1875 -0.269531,-0.355469 -0.449219,-0.496094 -0.179687,-0.152343 -0.382812,-0.292969 -0.601562,-0.40625 C 24.378906,39.015625 24.160156,38.902344 23.929688,38.796875 23.640625,38.664062 23.328125,38.519531 23.011719,38.347656 22.6875,38.1875 22.402344,37.96875 22.136719,37.714844 21.875,37.453125 21.664062,37.136719 21.492188,36.765625 c -0.160157,-0.382813 -0.25,-0.863281 -0.25,-1.433594 0,-1.121093 0.300781,-1.992187 0.894531,-2.625 0.601562,-0.632812 1.429687,-0.949219 2.484375,-0.949219 0.601562,0 1.132812,0.08984 1.578125,0.25 0.457031,0.171876 0.835937,0.359376 1.144531,0.5625 L 26.769531,34.40625 C 26.507812,34.226562 26.207031,34.074219 25.875,33.941406 25.558594,33.8125 25.191406,33.746094 24.761719,33.746094 c -1.042969,0 -1.5625,0.464844 -1.5625,1.375 0,0.238281 0.05859,0.441406 0.164062,0.617187 0.105469,0.171875 0.234375,0.328125 0.398438,0.464844 0.167969,0.128906 0.355469,0.242187 0.550781,0.347656 0.21875,0.105469 0.421875,0.203125 0.625,0.292969 0.3125,0.140625 0.628906,0.300781 0.953125,0.480469 0.339844,0.171875 0.648437,0.398437 0.925781,0.699219 0.285156,0.285156 0.519532,0.640624 0.699219,1.082031 0.1875,0.421875 0.277344,0.964843 0.277344,1.625 0,1.121093 -0.308594,1.992187 -0.910157,2.609375 -0.59375,0.601562 -1.503906,0.902344 -2.722656,0.902344 -0.820312,0 -1.472656,-0.09766 -1.960937,-0.308594 -0.488281,-0.21875 -0.851563,-0.414063 -1.105469,-0.59375 l 0.578125,-1.933594 c 0.285156,0.203125 0.625,0.398438 1.015625,0.574219 0.40625,0.179687 0.894531,0.269531 1.472656,0.269531"
     style="fill:#555555;fill-opacity:1;fill-rule:nonzero;stroke:none" />
  <path
     inkscape:connector-curvature="0"
     id="path15"
     d="M 33.140625,44.242188 C 31.75,44.242188 30.6875,43.707031 29.953125,42.625 29.222656,41.542969 28.855469,40 28.855469,38 c 0,-0.992188 0.117187,-1.871094 0.335937,-2.640625 0.226563,-0.773437 0.535156,-1.433594 0.925782,-1.960937 0.40625,-0.535157 0.878906,-0.941407 1.414062,-1.210938 0.554688,-0.285156 1.15625,-0.429688 1.804688,-0.429688 0.351562,0 0.660156,0.03906 0.933593,0.121094 0.292969,0.06641 0.539063,0.136719 0.757813,0.226563 0.210937,0.08984 0.382812,0.1875 0.519531,0.292969 0.15625,0.105468 0.261719,0.179687 0.332031,0.226562 L 35.375,34.519531 c -0.242188,-0.1875 -0.542969,-0.347656 -0.890625,-0.480469 -0.34375,-0.136718 -0.734375,-0.210937 -1.179687,-0.210937 -0.308594,0 -0.609376,0.07422 -0.910157,0.210937 -0.285156,0.132813 -0.546875,0.359376 -0.78125,0.675782 -0.21875,0.308594 -0.40625,0.730468 -0.5625,1.261718 -0.128906,0.527344 -0.203125,1.183594 -0.203125,1.964844 0,1.367188 0.195313,2.414063 0.578125,3.15625 0.390625,0.722656 1.023438,1.078125 1.910157,1.078125 0.511718,0 0.925781,-0.07031 1.261718,-0.210937 0.332032,-0.144532 0.609375,-0.285156 0.8125,-0.421875 l 0.488282,1.871093 c -0.277344,0.210938 -0.652344,0.398438 -1.132813,0.574219 -0.460937,0.171875 -1.007813,0.253907 -1.625,0.253907"
     style="fill:#555555;fill-opacity:1;fill-rule:nonzero;stroke:none" />
  <path
     inkscape:connector-curvature="0"
     id="path17"
     d="m 37.253906,43.988281 0,-1.964843 2.15625,0 0,-8.023438 -2.15625,0 0,-1.96875 6.257813,0 0,1.96875 -2.128907,0 0,8.023438 2.128907,0 0,1.964843 -6.257813,0"
     style="fill:#555555;fill-opacity:1;fill-rule:nonzero;stroke:none" />
  <path
     inkscape:connector-curvature="0"
     id="path19"
     d="m 45.21875,43.988281 0,-1.964843 2.15625,0 0,-8.023438 -2.15625,0 0,-1.96875 6.261719,0 0,1.96875 -2.128907,0 0,8.023438 2.128907,0 0,1.964843 -6.261719,0"
     style="fill:#555555;fill-opacity:1;fill-rule:nonzero;stroke:none" />
</svg>

<svg xmlns="http://www.w3.org/2000/svg" xmlns:xlink="http://www.w3.org/1999/xlink" width="64px" height="64px" viewBox="0 0 64 64" version="1.1">
<g id="surface1">
<path style=" stroke:none;fill-rule:nonzero;fill:rgb(86.27451%,86.27451%,86.27451%);fill-opacity:1;" d="M 10.671875 0 C 9.296875 0 8 1.355469 8 2.789062 L 8 61.210938 C 8 62.566406 9.375 64 10.671875 64 L 53.328125 64 C 54.625 64 56 62.566406 56 61.210938 L 56 18 L 38 0 Z M 10.671875 0 "/>
<path style=" stroke:none;fill-rule:nonzero;fill:rgb(0%,0%,0%);fill-opacity:0.196078;" d="M 42 18 L 56 32 L 56 18 Z M 42 18 "/>
<path style=" stroke:none;fill-rule:nonzero;fill:rgb(100%,100%,100%);fill-opacity:0.392157;" d="M 38 0 L 55.984375 18 L 40.757812 18 C 39.410156 18 38 16.574219 38 15.226562 Z M 38 0 "/>
<path style=" stroke:none;fill-rule:nonzero;fill:rgb(32.941176%,32.941176%,32.941176%);fill-opacity:1;" d="M 18.21875 43.988281 L 17.753906 41.226562 L 15.121094 41.226562 L 14.679688 43.988281 L 12.640625 43.988281 C 13.105469 41.632812 13.574219 39.488281 14.054688 37.558594 C 14.535156 35.609375 14.996094 33.773438 15.445312 32.03125 L 17.574219 32.03125 C 18.046875 33.78125 18.507812 35.640625 18.964844 37.617188 C 19.429688 39.578125 19.882812 41.699219 20.3125 43.988281 L 18.21875 43.988281 M 16.460938 34.347656 C 16.355469 34.796875 16.257812 35.234375 16.160156 35.640625 C 16.070312 36.039062 15.988281 36.445312 15.898438 36.84375 C 15.828125 37.226562 15.753906 37.625 15.679688 38.023438 C 15.617188 38.421875 15.550781 38.835938 15.492188 39.257812 L 17.421875 39.257812 C 17.355469 38.835938 17.289062 38.421875 17.226562 38.023438 C 17.160156 37.625 17.085938 37.226562 17.003906 36.84375 C 16.933594 36.445312 16.84375 36.039062 16.746094 35.640625 C 16.664062 35.234375 16.566406 34.796875 16.460938 34.347656 "/>
<path style=" stroke:none;fill-rule:nonzero;fill:rgb(32.941176%,32.941176%,32.941176%);fill-opacity:1;" d="M 24.160156 42.25 C 24.484375 42.25 24.761719 42.21875 24.972656 42.136719 C 25.191406 42.046875 25.371094 41.933594 25.492188 41.789062 C 25.621094 41.632812 25.710938 41.46875 25.753906 41.292969 C 25.800781 41.097656 25.832031 40.902344 25.832031 40.707031 C 25.832031 40.460938 25.769531 40.242188 25.65625 40.046875 C 25.539062 39.859375 25.386719 39.691406 25.207031 39.550781 C 25.027344 39.398438 24.824219 39.257812 24.605469 39.144531 C 24.378906 39.015625 24.160156 38.902344 23.929688 38.796875 C 23.640625 38.664062 23.328125 38.519531 23.011719 38.347656 C 22.6875 38.1875 22.402344 37.96875 22.136719 37.714844 C 21.875 37.453125 21.664062 37.136719 21.492188 36.765625 C 21.332031 36.382812 21.242188 35.902344 21.242188 35.332031 C 21.242188 34.210938 21.542969 33.339844 22.136719 32.707031 C 22.738281 32.074219 23.566406 31.757812 24.621094 31.757812 C 25.222656 31.757812 25.753906 31.847656 26.199219 32.007812 C 26.65625 32.179688 27.035156 32.367188 27.34375 32.570312 L 26.769531 34.40625 C 26.507812 34.226562 26.207031 34.074219 25.875 33.941406 C 25.558594 33.8125 25.191406 33.746094 24.761719 33.746094 C 23.71875 33.746094 23.199219 34.210938 23.199219 35.121094 C 23.199219 35.359375 23.257812 35.5625 23.363281 35.738281 C 23.46875 35.910156 23.597656 36.066406 23.761719 36.203125 C 23.929688 36.332031 24.117188 36.445312 24.3125 36.550781 C 24.53125 36.65625 24.734375 36.753906 24.9375 36.84375 C 25.25 36.984375 25.566406 37.144531 25.890625 37.324219 C 26.230469 37.496094 26.539062 37.722656 26.816406 38.023438 C 27.101562 38.308594 27.335938 38.664062 27.515625 39.105469 C 27.703125 39.527344 27.792969 40.070312 27.792969 40.730469 C 27.792969 41.851562 27.484375 42.722656 26.882812 43.339844 C 26.289062 43.941406 25.378906 44.242188 24.160156 44.242188 C 23.339844 44.242188 22.6875 44.144531 22.199219 43.933594 C 21.710938 43.714844 21.347656 43.519531 21.09375 43.339844 L 21.671875 41.40625 C 21.957031 41.609375 22.296875 41.804688 22.6875 41.980469 C 23.09375 42.160156 23.582031 42.25 24.160156 42.25 "/>
<path style=" stroke:none;fill-rule:nonzero;fill:rgb(32.941176%,32.941176%,32.941176%);fill-opacity:1;" d="M 33.140625 44.242188 C 31.75 44.242188 30.6875 43.707031 29.953125 42.625 C 29.222656 41.542969 28.855469 40 28.855469 38 C 28.855469 37.007812 28.972656 36.128906 29.191406 35.359375 C 29.417969 34.585938 29.726562 33.925781 30.117188 33.398438 C 30.523438 32.863281 30.996094 32.457031 31.53125 32.1875 C 32.085938 31.902344 32.6875 31.757812 33.335938 31.757812 C 33.6875 31.757812 33.996094 31.796875 34.269531 31.878906 C 34.5625 31.945312 34.808594 32.015625 35.027344 32.105469 C 35.238281 32.195312 35.410156 32.292969 35.546875 32.398438 C 35.703125 32.503906 35.808594 32.578125 35.878906 32.625 L 35.375 34.519531 C 35.132812 34.332031 34.832031 34.171875 34.484375 34.039062 C 34.140625 33.902344 33.75 33.828125 33.304688 33.828125 C 32.996094 33.828125 32.695312 33.902344 32.394531 34.039062 C 32.109375 34.171875 31.847656 34.398438 31.613281 34.714844 C 31.394531 35.023438 31.207031 35.445312 31.050781 35.976562 C 30.921875 36.503906 30.847656 37.160156 30.847656 37.941406 C 30.847656 39.308594 31.042969 40.355469 31.425781 41.097656 C 31.816406 41.820312 32.449219 42.175781 33.335938 42.175781 C 33.847656 42.175781 34.261719 42.105469 34.597656 41.964844 C 34.929688 41.820312 35.207031 41.679688 35.410156 41.542969 L 35.898438 43.414062 C 35.621094 43.625 35.246094 43.8125 34.765625 43.988281 C 34.304688 44.160156 33.757812 44.242188 33.140625 44.242188 "/>
<path style=" stroke:none;fill-rule:nonzero;fill:rgb(32.941176%,32.941176%,32.941176%);fill-opacity:1;" d="M 37.253906 43.988281 L 37.253906 42.023438 L 39.410156 42.023438 L 39.410156 34 L 37.253906 34 L 37.253906 32.03125 L 43.511719 32.03125 L 43.511719 34 L 41.382812 34 L 41.382812 42.023438 L 43.511719 42.023438 L 43.511719 43.988281 L 37.253906 43.988281 "/>
<path style=" stroke:none;fill-rule:nonzero;fill:rgb(32.941176%,32.941176%,32.941176%);fill-opacity:1;" d="M 45.21875 43.988281 L 45.21875 42.023438 L 47.375 42.023438 L 47.375 34 L 45.21875 34 L 45.21875 32.03125 L 51.480469 32.03125 L 51.480469 34 L 49.351562 34 L 49.351562 42.023438 L 51.480469 42.023438 L 51.480469 43.988281 L 45.21875 43.988281 "/>
</g>
</svg>
